src/pos-icons/timeline-help-outline.svg

<svg height="24" viewBox="0 0 24 24" width="24" xmlns="http://www.w3.org/2000/svg"><path d="m5 12c0 1.11-.89 2-2 2-1.1 0-2-.89-2-2 0-1.1.9-2 2-2 1.11 0 2 .9 2 2m-1-10v6h-2v-6zm-2 20v-6h2v6zm22-16v12c0 1.11-.89 2-2 2h-12c-1.1 0-2-.89-2-2v-4l-2-2 2-2v-4c0-1.11.9-2 2-2h12c1.11 0 2 .89 2 2m-2 0h-12v4.83l-1.17 1.17 1.17 1.17v4.83h12zm-5.5 9.5v1.5h-1.5v-1.5zm-2-5h-1.5v-.5c0-1.66 1.34-3 3-3s3 1.34 3 3c0 .97-.5 1.88-1.29 2.41l-.3.19c-.57.4-.91 1.02-.91 1.7v.2h-1.5v-.2c0-1.19.6-2.3 1.59-2.95l.29-.19c.39-.26.62-.69.62-1.16 0-.82-.67-1.5-1.5-1.5s-1.5.67-1.5 1.5z"/></svg>

<?xml version="1.0" encoding="UTF-8"?><!DOCTYPE svg PUBLIC "-//W3C//DTD SVG 1.1//EN" "http://www.w3.org/Graphics/SVG/1.1/DTD/svg11.dtd"><svg xmlns="http://www.w3.org/2000/svg" xmlns:xlink="http://www.w3.org/1999/xlink" version="1.1" id="mdi-timeline-help-outline" width="24" height="24" viewBox="0 0 24 24"><path d="M5 12C5 13.11 4.11 14 3 14C1.9 14 1 13.11 1 12C1 10.9 1.9 10 3 10C4.11 10 5 10.9 5 12M4 2V8H2V2H4M2 22V16H4V22H2M24 6V18C24 19.11 23.11 20 22 20H10C8.9 20 8 19.11 8 18V14L6 12L8 10V6C8 4.89 8.9 4 10 4H22C23.11 4 24 4.89 24 6M22 6H10V10.83L8.83 12L10 13.17V18H22V6M16.5 15.5V17H15V15.5H16.5M14.5 10.5H13V10C13 8.34 14.34 7 16 7C17.66 7 19 8.34 19 10C19 10.97 18.5 11.88 17.71 12.41L17.41 12.6C16.84 13 16.5 13.62 16.5 14.3V14.5H15V14.3C15 13.11 15.6 12 16.59 11.35L16.88 11.16C17.27 10.9 17.5 10.47 17.5 10C17.5 9.18 16.83 8.5 16 8.5C15.17 8.5 14.5 9.17 14.5 10V10.5Z" /></svg>
